assets/sonr-icons/eth-fill.svg

<svg xmlns="http://www.w3.org/2000/svg" width="24" height="24" fill="none"><path fill="currentColor" d="M12 22c5.523 0 10-4.477 10-10S17.523 2 12 2 2 6.477 2 12s4.477 10 10 10M6.5 11.893l5.569-7.894 5.569 7.894-5.569-2.164zm0 0 5.57-2.163 5.568 2.163-5.568 2.812zm5.57 3.713V19.5l-5.569-6.704zm0 3.894v-3.894l5.573-2.81z"/></svg>

<svg xmlns="http://www.w3.org/2000/svg" width="24" height="24" fill="none" viewBox="0 0 24 24"><path fill="#000" d="M12 22C17.523 22 22 17.523 22 12C22 6.477 17.523 2 12 2C6.477 2 2 6.477 2 12C2 17.523 6.477 22 12 22ZM6.5 11.893L12.069 3.999L17.638 11.893L12.069 9.729L6.5 11.893ZM6.5 11.893L12.07 9.73L17.638 11.893L12.07 14.705L6.5 11.893ZM12.07 15.606V19.5L6.501 12.796L12.07 15.606ZM12.07 19.5V15.606L17.643 12.796L12.07 19.5Z"/></svg>
